X: 5254
T: Broken Pledge, The
R: jig
M: 6/8
K: Ddorian
|:dcA D3|cAG EDD|DEG AGd|cAG Adc|
dcA D3|cAG EDD|DEG AGd|cAG EDD:|
|:dcA Ade|f3 ecA|cAG Ade|edg ecA|
dcA Ade|f3 ecA|F2G Add|cAG EDD|
dcA Ade|f2g ecA|cAG E3|edd eag|
ecA deg|faa ecA|D3 FGA|cAG EDD|

